packages/IcoMoon/src/ShrinkIcon/index.svg

<svg version="1.1" xmlns="http://www.w3.org/2000/svg" width="16" height="16" viewBox="0 0 16 16">
<path d="M9 7h6.5l-2.5-2.5 3-3-1.5-1.5-3 3-2.5-2.5z"></path>
<path d="M9 9v6.5l2.5-2.5 3 3 1.5-1.5-3-3 2.5-2.5z"></path>
<path d="M7 9h-6.5l2.5 2.5-3 3 1.5 1.5 3-3 2.5 2.5z"></path>
<path d="M7 7v-6.5l-2.5 2.5-3-3-1.5 1.5 3 3-2.5 2.5z"></path>
</svg>

<svg xmlns="http://www.w3.org/2000/svg" viewBox="0 0 16 16">
  <path d="M9 7h6.5L13 4.5l3-3L14.5 0l-3 3L9 .5zm0 2v6.5l2.5-2.5 3 3 1.5-1.5-3-3L15.5 9zM7 9H.5L3 11.5l-3 3L1.5 16l3-3L7 15.5zm0-2V.5L4.5 3l-3-3L0 1.5l3 3L.5 7z"/>
</svg>
